X: 10932
T: MARCH IN THE BATTLE OF PRAGUE
R: march
B: "Edinburgh Repository of Music" v.1 p.93 #2 - p.94 #1
F: http://digital.nls.uk/special-collections-of-printed-music/pageturner.cfm?id=87776133
Z: 2015 John Chambers <jc:trillian.mit.edu>
M: C
L: 1/8
K: F
|:\
f2f>f f2 g/f/e/d/ | c2c>c c2a>f | d2b>g e2g>e | f2f>f f2a>g |\
g2e>f gg ag | f2de ff g>f | {f}ed/e/ {g}fe/d/ c2=B2 | c2c>c c2z2 :|
|:\
c2c>d e>fg>a | b2gb a2fa | c'>af>a b>ga>f | g2c>c c2A>B |\
c2d>e f2a>f | d2b>g a2 (3cfa | c'>aff agfe | f2f>f f2z2 :|
